X: 4
T: Billy Brocker's
R: reel
M: 4/4
L: 1/8
K: Dmaj
B|A~F3 AFdB|A~F3 ~G3B|A~F3 ABdf|e2 ge fddB|A~F3 AFdB|A~F3 ~G3B|A~F3 ABdf|e2 ge fd d/e/f|| ~d3f ~a3z|f~a3 abaf|d2 df ~a3f|~g2 e/f/g f{gf}d d/e/f| dcdf a2 a{b}a|e~a3 abaf|e~f3 f~g3|a2 ge fddB||


Tune 1872	Setting 15307

